assets/images/item_41896.svg

<svg xmlns="http://www.w3.org/2000/svg" version="1.1" width="152px" height="50.6px" viewBox="0 0 152 50.6"><desc>Return to the beginning</desc><defs/><g id="Polygon48246"><path d="m12.2 14.4l-2.6 0l0 7l-.9 0l0-7l-2.6 0l0-.8l6.1 0l0 .8zm1.1-.8l.9 0l0 3.3l4.2 0l0-3.3l.9 0l0 7.8l-.9 0l0-3.7l-4.2 0l0 3.7l-.9 0l0-7.8zm8 0l4.8 0l0 .8l-3.9 0l0 2.5l3.7 0l0 .8l-3.7 0l0 2.8l4.1 0l0 .9l-5 0l0-7.8zm9.5 0c0 0 2.41-.03 2.4 0c1.3 0 2.6.5 2.6 1.9c0 .9-.5 1.5-1.4 1.7c0 0 0 .1 0 .1c1 .1 1.8.9 1.8 1.9c0 1.7-1.6 2.2-3 2.2c-.04-.04-2.4 0-2.4 0l0-7.8zm1 3.3c0 0 1.24-.03 1.2 0c.9 0 1.8-.2 1.8-1.3c0-1-.8-1.2-1.7-1.2c.03.03-1.3 0-1.3 0l0 2.5zm0 3.6c0 0 1.52 0 1.5 0c.9 0 1.9-.4 1.9-1.4c0-1-.9-1.4-1.9-1.4c.04.03-1.5 0-1.5 0l0 2.8zm6-6.9l4.9 0l0 .8l-4 0l0 2.5l3.7 0l0 .8l-3.7 0l0 2.8l4.2 0l0 .9l-5.1 0l0-7.8zm12.9 7.2c-.8.5-1.9.8-2.9.8c-2.4 0-4.1-1.7-4.1-4.1c0-2.5 1.8-4.1 4.2-4.1c1 0 2 .2 2.7 1c0 0-.7.7-.7.7c-.5-.5-1.3-.9-2.1-.9c-1.8 0-3.1 1.4-3.1 3.3c0 1.8 1.3 3.2 3.2 3.2c.6 0 1.4-.2 1.9-.5c.03.05 0-2.3 0-2.3l-1.8 0l0-.9l2.7 0c0 0 .05 3.83 0 3.8zm2-7.2l.9 0l0 7.8l-.9 0l0-7.8zm2.8 0l1.2 0l4.5 6.4l0 0l0-6.4l1 0l0 7.8l-1.2 0l-4.5-6.5l0 0l0 6.5l-1 0l0-7.8zm8.6 0l1.2 0l4.5 6.4l0 0l0-6.4l.9 0l0 7.8l-1.1 0l-4.5-6.5l-.1 0l0 6.5l-.9 0l0-7.8zm8.6 0l.9 0l0 7.8l-.9 0l0-7.8zm2.9 0l1.1 0l4.5 6.4l.1 0l0-6.4l.9 0l0 7.8l-1.2 0l-4.5-6.5l0 0l0 6.5l-.9 0l0-7.8zm15.2 7.2c-.9.5-1.9.8-2.9.8c-2.5 0-4.2-1.7-4.2-4.1c0-2.5 1.9-4.1 4.2-4.1c1 0 2 .2 2.7 1c0 0-.7.7-.7.7c-.5-.5-1.3-.9-2.1-.9c-1.8 0-3.1 1.4-3.1 3.3c0 1.8 1.3 3.2 3.2 3.2c.6 0 1.4-.2 1.9-.5c.04.05 0-2.3 0-2.3l-1.7 0l0-.9l2.7 0c0 0-.03 3.83 0 3.8z" stroke="none" fill="#808284"/></g><g id="Polygon48245"><path d="m7 .6c0 0 1.96-.03 2 0c1.5 0 3.1.2 3.1 2.1c0 1.2-.8 1.9-2 2.1c.01-.03 2.2 3.6 2.2 3.6l-1.1 0l-2.1-3.5l-1.2 0l0 3.5l-.9 0l0-7.8zm.9 3.4c0 0 .82 0 .8 0c1 0 2.4 0 2.4-1.3c0-1.1-1-1.3-1.9-1.3c-.01.03-1.3 0-1.3 0l0 2.6zm5.8-3.4l4.9 0l0 .8l-4 0l0 2.5l3.7 0l0 .8l-3.7 0l0 2.8l4.2 0l0 .9l-5.1 0l0-7.8zm11.9.8l-2.6 0l0 7l-.9 0l0-7l-2.6 0l0-.8l6.1 0l0 .8zm6.9 4c0 1.7-.7 3.2-2.9 3.2c-2.1 0-2.9-1.5-2.9-3.2c-.03-.01 0-4.8 0-4.8l.9 0c0 0-.01 4.66 0 4.7c0 1.2.5 2.4 2 2.4c1.6 0 2-1.2 2-2.4c.02-.04 0-4.7 0-4.7l.9 0c0 0 .04 4.79 0 4.8zm2-4.8c0 0 1.96-.03 2 0c1.5 0 3.1.2 3.1 2.1c0 1.2-.8 1.9-2 2.1c.01-.03 2.2 3.6 2.2 3.6l-1.1 0l-2.1-3.5l-1.2 0l0 3.5l-.9 0l0-7.8zm.9 3.4c0 0 .81 0 .8 0c1 0 2.4 0 2.4-1.3c0-1.1-1-1.3-1.9-1.3c-.01.03-1.3 0-1.3 0l0 2.6zm5.8-3.4l1.1 0l4.6 6.4l0 0l0-6.4l.9 0l0 7.8l-1.2 0l-4.5-6.5l0 0l0 6.5l-.9 0l0-7.8zm16.8.8l-2.6 0l0 7l-.9 0l0-7l-2.6 0l0-.8l6.1 0l0 .8zm.3 3.1c0-2.4 1.7-4.1 4.1-4.1c2.4 0 4.1 1.7 4.1 4.1c0 2.3-1.7 4.1-4.1 4.1c-2.4 0-4.1-1.8-4.1-4.1zm7.2 0c0-1.8-1.3-3.3-3.1-3.3c-1.8 0-3.1 1.5-3.1 3.3c0 1.8 1.3 3.2 3.1 3.2c1.8 0 3.1-1.4 3.1-3.2z" stroke="none" fill="#808284"/></g></svg>

<?xml version="1.0" standalone="no"?><!DOCTYPE svg PUBLIC "-//W3C//DTD SVG 1.1//EN" "http://www.w3.org/Graphics/SVG/1.1/DTD/svg11.dtd"><svg xmlns="http://www.w3.org/2000/svg" version="1.1" width="152px" height="50.6px" viewBox="0 0 152 50.6">  <desc>Return to the beginning</desc>  <defs/>  <g id="Polygon48077">    <path d="M 12.2 14.4 L 9.6 14.4 L 9.6 21.4 L 8.7 21.4 L 8.7 14.4 L 6.1 14.4 L 6.1 13.6 L 12.2 13.6 L 12.2 14.4 Z M 13.3 13.6 L 14.2 13.6 L 14.2 16.9 L 18.4 16.9 L 18.4 13.6 L 19.3 13.6 L 19.3 21.4 L 18.4 21.4 L 18.4 17.7 L 14.2 17.7 L 14.2 21.4 L 13.3 21.4 L 13.3 13.6 Z M 21.3 13.6 L 26.1 13.6 L 26.1 14.4 L 22.2 14.4 L 22.2 16.9 L 25.9 16.9 L 25.9 17.7 L 22.2 17.7 L 22.2 20.5 L 26.3 20.5 L 26.3 21.4 L 21.3 21.4 L 21.3 13.6 Z M 30.8 13.6 C 30.8 13.6 33.21 13.57 33.2 13.6 C 34.5 13.6 35.8 14.1 35.8 15.5 C 35.8 16.4 35.3 17 34.4 17.2 C 34.4 17.2 34.4 17.3 34.4 17.3 C 35.4 17.4 36.2 18.2 36.2 19.2 C 36.2 20.9 34.6 21.4 33.2 21.4 C 33.16 21.36 30.8 21.4 30.8 21.4 L 30.8 13.6 Z M 31.8 16.9 C 31.8 16.9 33.04 16.87 33 16.9 C 33.9 16.9 34.8 16.7 34.8 15.6 C 34.8 14.6 34 14.4 33.1 14.4 C 33.13 14.43 31.8 14.4 31.8 14.4 L 31.8 16.9 Z M 31.8 20.5 C 31.8 20.5 33.32 20.5 33.3 20.5 C 34.2 20.5 35.2 20.1 35.2 19.1 C 35.2 18.1 34.3 17.7 33.3 17.7 C 33.34 17.73 31.8 17.7 31.8 17.7 L 31.8 20.5 Z M 37.8 13.6 L 42.7 13.6 L 42.7 14.4 L 38.7 14.4 L 38.7 16.9 L 42.4 16.9 L 42.4 17.7 L 38.7 17.7 L 38.7 20.5 L 42.9 20.5 L 42.9 21.4 L 37.8 21.4 L 37.8 13.6 Z M 50.7 20.8 C 49.9 21.3 48.8 21.6 47.8 21.6 C 45.4 21.6 43.7 19.9 43.7 17.5 C 43.7 15 45.5 13.4 47.9 13.4 C 48.9 13.4 49.9 13.6 50.6 14.4 C 50.6 14.4 49.9 15.1 49.9 15.1 C 49.4 14.6 48.6 14.2 47.8 14.2 C 46 14.2 44.7 15.6 44.7 17.5 C 44.7 19.3 46 20.7 47.9 20.7 C 48.5 20.7 49.3 20.5 49.8 20.2 C 49.83 20.25 49.8 17.9 49.8 17.9 L 48 17.9 L 48 17 L 50.7 17 C 50.7 17 50.75 20.83 50.7 20.8 Z M 52.7 13.6 L 53.6 13.6 L 53.6 21.4 L 52.7 21.4 L 52.7 13.6 Z M 55.5 13.6 L 56.7 13.6 L 61.2 20 L 61.2 20 L 61.2 13.6 L 62.2 13.6 L 62.2 21.4 L 61 21.4 L 56.5 14.9 L 56.5 14.9 L 56.5 21.4 L 55.5 21.4 L 55.5 13.6 Z M 64.1 13.6 L 65.3 13.6 L 69.8 20 L 69.8 20 L 69.8 13.6 L 70.7 13.6 L 70.7 21.4 L 69.6 21.4 L 65.1 14.9 L 65 14.9 L 65 21.4 L 64.1 21.4 L 64.1 13.6 Z M 72.7 13.6 L 73.6 13.6 L 73.6 21.4 L 72.7 21.4 L 72.7 13.6 Z M 75.6 13.6 L 76.7 13.6 L 81.2 20 L 81.3 20 L 81.3 13.6 L 82.2 13.6 L 82.2 21.4 L 81 21.4 L 76.5 14.9 L 76.5 14.9 L 76.5 21.4 L 75.6 21.4 L 75.6 13.6 Z M 90.8 20.8 C 89.9 21.3 88.9 21.6 87.9 21.6 C 85.4 21.6 83.7 19.9 83.7 17.5 C 83.7 15 85.6 13.4 87.9 13.4 C 88.9 13.4 89.9 13.6 90.6 14.4 C 90.6 14.4 89.9 15.1 89.9 15.1 C 89.4 14.6 88.6 14.2 87.8 14.2 C 86 14.2 84.7 15.6 84.7 17.5 C 84.7 19.3 86 20.7 87.9 20.7 C 88.5 20.7 89.3 20.5 89.8 20.2 C 89.84 20.25 89.8 17.9 89.8 17.9 L 88.1 17.9 L 88.1 17 L 90.8 17 C 90.8 17 90.77 20.83 90.8 20.8 Z " stroke="none" fill="#808284"/>  </g>  <g id="Polygon48076">    <path d="M 7 0.6 C 7 0.6 8.96 0.57 9 0.6 C 10.5 0.6 12.1 0.8 12.1 2.7 C 12.1 3.9 11.3 4.6 10.1 4.8 C 10.11 4.77 12.3 8.4 12.3 8.4 L 11.2 8.4 L 9.1 4.9 L 7.9 4.9 L 7.9 8.4 L 7 8.4 L 7 0.6 Z M 7.9 4 C 7.9 4 8.72 4 8.7 4 C 9.7 4 11.1 4 11.1 2.7 C 11.1 1.6 10.1 1.4 9.2 1.4 C 9.19 1.43 7.9 1.4 7.9 1.4 L 7.9 4 Z M 13.7 0.6 L 18.6 0.6 L 18.6 1.4 L 14.6 1.4 L 14.6 3.9 L 18.3 3.9 L 18.3 4.7 L 14.6 4.7 L 14.6 7.5 L 18.8 7.5 L 18.8 8.4 L 13.7 8.4 L 13.7 0.6 Z M 25.6 1.4 L 23 1.4 L 23 8.4 L 22.1 8.4 L 22.1 1.4 L 19.5 1.4 L 19.5 0.6 L 25.6 0.6 L 25.6 1.4 Z M 32.5 5.4 C 32.5 7.1 31.8 8.6 29.6 8.6 C 27.5 8.6 26.7 7.1 26.7 5.4 C 26.67 5.39 26.7 0.6 26.7 0.6 L 27.6 0.6 C 27.6 0.6 27.59 5.26 27.6 5.3 C 27.6 6.5 28.1 7.7 29.6 7.7 C 31.2 7.7 31.6 6.5 31.6 5.3 C 31.62 5.26 31.6 0.6 31.6 0.6 L 32.5 0.6 C 32.5 0.6 32.54 5.39 32.5 5.4 Z M 34.5 0.6 C 34.5 0.6 36.46 0.57 36.5 0.6 C 38 0.6 39.6 0.8 39.6 2.7 C 39.6 3.9 38.8 4.6 37.6 4.8 C 37.61 4.77 39.8 8.4 39.8 8.4 L 38.7 8.4 L 36.6 4.9 L 35.4 4.9 L 35.4 8.4 L 34.5 8.4 L 34.5 0.6 Z M 35.4 4 C 35.4 4 36.21 4 36.2 4 C 37.2 4 38.6 4 38.6 2.7 C 38.6 1.6 37.6 1.4 36.7 1.4 C 36.69 1.43 35.4 1.4 35.4 1.4 L 35.4 4 Z M 41.2 0.6 L 42.3 0.6 L 46.9 7 L 46.9 7 L 46.9 0.6 L 47.8 0.6 L 47.8 8.4 L 46.6 8.4 L 42.1 1.9 L 42.1 1.9 L 42.1 8.4 L 41.2 8.4 L 41.2 0.6 Z M 58 1.4 L 55.4 1.4 L 55.4 8.4 L 54.5 8.4 L 54.5 1.4 L 51.9 1.4 L 51.9 0.6 L 58 0.6 L 58 1.4 Z M 58.3 4.5 C 58.3 2.1 60 0.4 62.4 0.4 C 64.8 0.4 66.5 2.1 66.5 4.5 C 66.5 6.8 64.8 8.6 62.4 8.6 C 60 8.6 58.3 6.8 58.3 4.5 Z M 65.5 4.5 C 65.5 2.7 64.2 1.2 62.4 1.2 C 60.6 1.2 59.3 2.7 59.3 4.5 C 59.3 6.3 60.6 7.7 62.4 7.7 C 64.2 7.7 65.5 6.3 65.5 4.5 Z " stroke="none" fill="#808284"/>  </g></svg>
